!!!SOCIAL_FUNCTION:	klokali songs
!!!PDT:	1939
!!!OTL: No_46_Lightning_Dance_Song.krn
!!!LANG: Non-Tone
!!!LING_GROUP: Wakashan
!!!REG: Pacific Northwest
**kern
*staff1
=1-
*clefF4
*k[f#]
*M3/4
2r
8r
16r
16d\
=2
2d\
8B\L
16B\L
16B\JJ
=3||
*M2/4
8d\
16r
16d\
16d\LL
16c#\
16B\
16d\JJ
=4||
*M3/4
4d\
20B\LL
20G\
20A\
40G\JJk
40r
20r
16B\LL
16G\
16.B\
32d\JJk
=5||
*M2/4
2c#\
=6
16c#\LL
16B\
16G\JJ
16r
16c#\LL
16B\
16G\JJ
32r
32c#\
=7
8B\L
16B\L
16G\JJ
8c#\L
16c#\L
16c#\JJ
=8
4G\
4r
=9||
*M2/4
8r
16r
16e\
16e\LL
16d\
16c\
16e\JJ
=10
=
2e\
=11||
*M3/4
(24g\LL
24f#\)
(24f#\
24e\)
24c\
24c\JJ
8e\
16r
16e\
16e\LL
16d\
16c\
16e\JJ
=12
4e\
16c\LL
32G\L
32G\J
16A\
32G\JJk
32r
16c\LL
16G\
16.B\
32d\JJk
=13
2c\
20e\LL
20d\
20c\
20B\
20A\JJ
=14||
*M2/4
8c\
16r
16d\
12c\L
12A\
12G\J
=15
8c\L
16c\L
16c\JJ
16c\LL
16A\J
8G\J
=16
16E\LK
8.E\J
4E\
=17||
*M3/4
8.c\L
16c\Jk
8c\L
16c\L
16c\JJ
16c\LL
16A\J
8G\J
=18||
*M2/4
4E\
8.E\L
16G\Jk
=19||
*M3/4
4E\
8E\
16r
16e\
16e\LL
16d\
16c\
16e\JJ
=20:|!
*M2/4
4E\
8.E\L
16G\Jk
=21
4E\
8E\
8r
==
*-
